X:143
T:Papillon
R:Polka
S:Carnet du tambourinaire Ginas (1924)
O:France
A:Provence
C:Anonyme
K:Bb
L:1/8
Z:Transcrit et/ou corrig? par Michel BELLON - 2005-06-01
Z:Pour toute observation mailto:galouvielle@free.fr
M:2/4
Fd d>c | BAA2 | Fe e>c | Bff2 | Fd d>c | B>A g2 | fe G>A | cB Bz !fine!::
cA/c/ cd | c3f | =eceg | gff2 | cA/B/ cd | c3f | =ecde | ff fz ::
Fd d>c | BAA2 | Fe e>c | Bff2 | Fd d>c | B>A g2 | fe G>A | cB Bz ::
[K:Eb] GBd>G | BAA2 | FA d>F | AGG2 | GB e>G | BAf>e | dBg>f | ege2 !D.C.!:|
<end>
<start>
